X:1
T:Salve Regina (1586) - Lasso
T:James Gibb editions
T:#
%%score [ 1 2 3 4 ]
L:1/8
Q:1/4=200
M:none
K:C
V:1 treble nm="Soprano" snm="S"
V:2 treble nm="Alto" snm="A"
V:3 treble-8 nm="Tenor" snm="T"
V:4 bass nm="Bass" snm="B"
V:1
 z4"^Salve Regina (1586)""^Orlando di Lasso\n(1530-94)" (A6 B2 c2 A2 | B8 A8) | A8 A8 | A8 ^G4 A4 | %4
w: Sal\- * * *||ve Re-|gi- na mi-|
 A4 c4 _B4 A4 | A4 (A6 GF G4) | F8 (E6 F2 | G2 A4 ^G2) A4 E4 | ^F8 G4 G4 | E4 F4 D4 (d4- | %10
w: se- ri- cor- di-|ae, vi\- * * *|ta, vi\- *|* * * ta, dul-|ce- do, et|spes no- stra sal\-|
 d2 ^cB c4) d8 | D8 E4 F4 | (G6 A2 _B4) A4 | z4 A4 B4 c4 | d8 e4 c4- | c2 c2 B4 A6 A2 | %16
w: * * * * ve.|Ad te cla-|ma\- * * mus,|ad te cla-|ma- mus e\-|* xu- les fi- li-|
 ^G4 (A6 G^F G4) | A8 z4 A4 | ^G4 z2 A4 =G2 F4 | E8 z8 | z4 A4 ^G4 z2 A2- | A2 G2 F4 E4 F4- | %22
w: i E\- * * *|vae. Ad|te su- spi- ra-|mus,|ad te su\-|* spi- ra- mus ge\-|
 F4 G8 F4- | F4 E8 (F4- | F2 ED E4) F8 | z4 d8 c4- | c4 _B8 A4- | A4 G8 F4- | F4 (E8 D4 | %29
w: * men- tes|* et flen\-|* * * * tes|in hac|* la- cry\-|* ma- rum|* val\- *|
 D2 ^CB, C4) D8 | z16 | z16 | z8 z4 G4- | G4 F4 (E6 F2 | G4) A4 (c2 B2 c2 A2 | B2 A2 A6 GF G4 | %36
w: * * * * le.|||Ad\-|* vo- ca\- *|* ta no\- * * *||
 A8) z8 | z8 E8 | G4 G4 F8 | F4 E8 E4 | E4 E8 F4 | G12 (G4- | G4 F2 E2 F8) | !fermata!E16 || %44
w: stra,|mi-|se- ri- cor-|des o- cu-|los ad nos|con- ver\-||te.|
"^Secunda pars" ^F16 | G16 | A12 _B4- | B4 A4 d8- | d8 ^c8 | z16 | z16 | z16 | z8 A8 | A8 G4 G4 | %54
w: Et|Je-|sum, be\-|* ne- di\-|* ctum||||no-|bis post hoc|
 F4 _B8 A4 | A4 ^F4 G8 | E16 | z8 ^F8 | G8 A8 | B8 A8- | A8 ^G8- | G8 A8- | A8 A8 | %63
w: e- xi- li-|um o- sten-|de.|O|cle- mens,|O pi\-|* a,|* O|* dul-|
 (B6 c2 d4)[Q:1/4=198] G4- |[Q:1/4=194] G4[Q:1/4=191] A4[Q:1/4=186] G8 | %65
w: cis * * Vir\-|* go Ma-|
[Q:1/4=181] (F4[Q:1/4=178] E2[Q:1/4=177] D2[Q:1/4=173] E8) |[Q:1/4=170] !fermata!^F16 |] %67
w: ri\- * * *|a.|
V:2
 z8 (E6 F2 | G8 F8) | E8 F8 | E8 E4 E4 | F4 G4 G4 F4 | E8 E8 | A,4 (A6 GF G4) | E8 ^C8 | D8 D4 E4 | %9
w: Sal\- *||ve Re-|gi- na mi-|se- ri- cor- di-|ae, vi-|ta, vi\- * * *|ta, dul-|ce- do, et|
 C8 _B,4 B,4 | A,8 A,4 A,4- | A,4 B,4 C8 | D4 E4 F6 F2 | G4 (F2 E2 D4 G4) | ^F4 G4 G4 G4 | %15
w: spes no- stra|sal- ve. Ad|* te cla-|ma- mus e- xu-|les, ad * * *|te cla- ma- mus|
 G6 G2 F4 E4- | E2 E2 D4 E8 | F8 z4 F4 | E4 z2 F4 E2 D4 | E16 | z4 D4 E4 z2 F2 | E4 D4 ^C4 D4 | %22
w: e- xu- les fi\-|* li- i E-|vae. Ad|te su- spi- ra-|mus,|ad te su-|spi- ra- mus ge-|
 D8 C8 | C8 C8- | C8 D8 | F8 (E6 F2 | G8) C8 | C8 C8 | C8 A,8 | A,8 z4 (F4- | F4 E8) (D4- | %31
w: men- tes|et flen\-|* tes|in hac *|* la-|cry- ma-|rum val-|le. E\-|* * ia|
 D2 CB, A,4) (E6 DC | B,2 A,2 D6 ^CB, C4) | D8 z8 | z16 | z8 E8 | C4 (F2 E2 D2 C2 C4- | %37
w: * * * * er\- * *||go,||il-|los tu\- * * * *|
 C2 B,A, B,4) C4 C4 | D4 D4 D8 | C4 C8 C4 | C4 C4 C4 A,4 | D16- | D16 | !fermata!^C16 || D16 | %45
w: * * * * os mi-|se- ri- cor-|des o- cu-|los ad nos con-|ver\-||te.|Et|
 (D8 E8) | F12 G4- | G4 F4 (F8 | D8) E8 | z16 | z16 | z16 | z4 C8 F4 | F8 E4 D4- | D4 F8 F4 | %55
w: Je\- *|sum, be\-|* ne- di\-|* ctum||||no- bis|post hoc e\-|* xi- li-|
 E4 A,4 D8 | ^C16 | z8 z4 D4- | D4 E4 F4 F4- | F4 (F6 E2 E4- | E2 DC D4) E8- | E8 E8- | E8 ^F8 | %63
w: um o- sten-|de.|O|* cle- mens, O|* pi\- * *|* * * * a,|* O|* dul-|
 (G6 FE D4) E4- | E4 F4 E4 (D4- | D4 ^C2 B,2 C8) | !fermata!D16 |] %67
w: cis * * * Vir\-|* go Ma- ri\-||a.|
V:3
 (A6 B2 c8) | d4 (e8 d4- | d2 ^cB c4) d4 d4 | c8 B4 c4 | c4 e4 d6 d2 | c8 (B6 c2 | d6 A2 c4 B2 A2 | %7
w: Sal\- * *|ve, sal\- *|* * * * ve Re-|gi- na mi-|se- ri- cor- di-|ae, vi\- *||
 B2 c2 B4) A4 A4 | A8 B4 c4 | G4 F8 G4 | E8 ^F8- | F8 z4 A4 | B4 c4 d8 | c8 z4 G4 | A4 B4 c4 e4 | %15
w: * * * ta, dul-|ce- do, et|spes no- stra|sal- ve.|* Ad|te cla- ma-|mus, ad|te cla- ma- mus|
 d6 d2 c4 c4 | B4 A4 B8 | d16 | z16 | z4 c4 B4 z2 c2- | c2 B2 A4 B4 z2 c2- | c2 c2 A4 A4 A4 | %22
w: e- xu- les fi-|li- i E-|vae.||Ad te su\-|* spi- ra- mus, su\-|* spi- ra- mus ge-|
 _B8 A8 | G8 (A8 | G8) _B4 B4- | B4 A4 (A8 | D6 E2 F8- | F4 E4 A8- | A8 F8 | E8 D8 | z16 | z16 | %32
w: men- tes|et flen\-|* tes in|* hac la\-||* cry- ma\-|* rum|val- le.|||
 z8 (G8 | A8 A4 c4- | c2 B2 c2 d2 e4) A4 | d6 c2 B8) | A8 z8 | z8 G8 | _B4 B4 B8 | A4 G8 G4 | %40
w: Ad\-|* vo- ca\-|* * * * * ta|no\- * *|stra,|mi-|se- ri- cor-|des o- cu-|
 G4 G4 A4 (c4- | c4 _B2 A2 B8) | A16 | !fermata!A16 || A16 | (B8 c8) | c8 d8 | d8 (_B4 A4- | %48
w: los ad nos con\-||ver-|te.|Et|Je\- *|sum, be-|ne- di\- *|
 A2 GF G2 F2) A4 (A4- | A2 G2 F2 E2 D2 E2 F2 G2 | A2 B2 c4) G4 (G2 A2 | B2 c2 d2 B2 c4) A4 | %52
w: * * * * * ctum fru\-||* * * ctum ven\- *|* * * * * tris|
 G8 F4 c4- | c4 c4 c4 _B4 | A4 d8 d4 | ^c4 d4 _B8 | A16 | z4 A4 (A8 | B8) c8 | d8 (c6 B2 | %60
w: tu- i, no\-|* bis post hoc|e- xi- li-|um o- sten-|de.|O cle\-|* mens,|O Pi\- *|
 A8) B8- | B8 ^c8- | c8 d8 | d8 B8 | c12 _B4 | A16 | !fermata!A16 |] %67
w: * a,|* O|* dul-|cis Vir-|go Ma-|ri-|a.|
V:4
 z8 (A,8 | G,8 A,8- | A,8) D,4 D,4 | A,8 E,4 A,4 | F,4 C,4 G,4 D,4 | A,8 (E,8 | D,8 E,8- | %7
w: Sal\-||* ve Re-|gi- na mi-|se- ri- cor- di-|ae, vi\-||
 E,8) A,,4 A,,4 | D,8 G,,4 C,4- | C,4 A,,4 _B,,4 G,,4 | A,,8 D,8- | D,8 z8 | z8 D,8 | %13
w: * ta, dul-|ce- do, et|* spes no- stra|sal- ve.||Ad|
 E,4 F,4 G,4 E,4 | D,4 G,,4 C,8 | (G,8 A,8) | E,4 F,4 E,8 | D,16 | z16 | z4 A,4 ^G,4 z2 A,2- | %20
w: te cla- ma- mus|e- xu- les|fi\- *|li- i E-|vae.||Ad te su\-|
 A,2 G,2 F,4 E,4 z2 A,,2- | A,,2 C,2 D,4 A,,4 D,4 | _B,,8 C,8 | C,8 (A,,4 G,,2 F,,2 | C,8) _B,,8 | %25
w: * spi- ra- mus, su\-|* spi- ra- mus ge-|men- tes|et flen\- * *|* tes|
 D,8 A,,8 | G,,8 F,,8 | C,8 A,,8 | A,,16 | A,,8 z8 | (A,8 G,8) | (F,6 E,D, C,4) (G,4- | %32
w: in hac|la- cry-|ma- rum|val-|le.|E\- *|ia * * * er\-|
 G,2 F,E, D,2 F,2 E,8) | D,8 z8 | z16 | z8 E,8 | F,4 (D,2 E,2 F,2 E,2 E,2 D,C, | D,8) C,4 C,4 | %38
w: |go,||il-|los tu\- * * * * * *|* os mi-|
 G,,4 G,,4 _B,,8 | F,,4 C,8 C,4 | C,8 A,,8 | G,,8 G,,8 | D,16 | !fermata!A,,16 || D,16 | %45
w: se- ri- cor-|des o- cu-|los ad|nos con-|ver-|te.|Et|
 (G,8 C,8) | F,8 D,8 | D,16 | _B,,8 A,,8 | (D,6 E,2 F,2 G,2 A,4) | D,4 (A,,2 B,,2 C,2 D,2 E,2 F,2 | %51
w: Je\- *|sum, be-|ne-|di- ctum|fru\- * * * *|ctum ven\- * * * * *|
 G,8) E,4 (F,4- | F,2 E,D, E,4) F,4 F,4- | F,4 F,4 C,4 G,4 | D,4 _B,,8 D,4 | A,,4 D,4 G,,8 | %56
w: * tris tu\-|* * * * i, no\-|* bis post hoc|e- xi- li-|um o- sten-|
 A,,8 z8 | D,16 | G,8 F,8 | D,8 (A,6 G,2 | F,8) E,8- | E,8 A,,8- | A,,8 D,8 | %63
w: de.|O|cle- mens,|O pi\- *|* a,|* O|* dul-|
 G,,4 (G,6 F,2 E,2 D,2 | C,4) F,,4 G,,8 | A,,16 | !fermata!D,16 |] %67
w: cis Vir\- * * *|* go Ma-|ri-|a.|

